assets/picture.svg

<svg height="360" viewBox="0 0 640 360" width="640" xmlns="http://www.w3.org/2000/svg"><g fill="none" fill-rule="evenodd"><path d="m0 0h640v360h-640z" fill="#fff"/><g transform="matrix(0 1 -1 0 240 138)"><circle cx="40" cy="40" fill="#f4e1f8" r="40"/><path d="m24.8716687 77.040207 39.6375518-68.65425361c9.425379 7.31775061 15.4907795 18.75757351 15.4907795 31.61404661 0 22.09139-17.90861 40-40 40-5.3535305 0-10.4614208-1.0517109-15.1283313-2.959793z" fill="#e2b1ed"/><path d="m15.4907795 8.38595339 39.6375518 68.65425361c-4.6669105 1.9080821-9.7748008 2.959793-15.1283313 2.959793-22.09139 0-40-17.90861-40-40 0-12.8564731 6.06540051-24.296296 15.4907795-31.61404661z" fill="#cd52ea"/></g><g fill="#cd52ea"><text font-family="NittiGrotesk-Light, Nitti Grotesk" font-size="28" font-weight="300" letter-spacing="3.333333"><tspan x="269" y="165">URL</tspan></text><text font-family="NittiGrotesk-Bold, Nitti Grotesk" font-size="52" font-weight="bold"><tspan x="269" y="207">Shortener</tspan></text></g></g></svg>

<?xml version="1.0" encoding="UTF-8"?>
<svg width="640px" height="360px" viewBox="0 0 640 360" version="1.1" xmlns="http://www.w3.org/2000/svg" xmlns:xlink="http://www.w3.org/1999/xlink">
    <!-- Generator: Sketch 52.5 (67469) - http://www.bohemiancoding.com/sketch -->
    <title>url-shortener/picture</title>
    <desc>Created with Sketch.</desc>
    <defs>
        <path d="M15.4907795,8.38595339 L55.1283313,77.040207 C50.4614208,78.9482891 45.3535305,80 40,80 C17.90861,80 6.4659389e-13,62.09139 6.4659389e-13,40 C6.4659389e-13,27.1435269 6.06540051,15.703704 15.4907795,8.38595339 Z" id="path-1"></path>
    </defs>
    <g id="url-shortener/picture" stroke="none" stroke-width="1" fill="none" fill-rule="evenodd">
        <rect id="Rectangle" fill="#FFFFFF" x="0" y="0" width="640" height="360"></rect>
        <g id="Group-2-Copy" transform="translate(200.000000, 178.000000) rotate(-270.000000) translate(-200.000000, -178.000000) translate(160.000000, 138.000000)">
            <circle id="Oval-2" fill="#F4E1F8" cx="40" cy="40" r="40"></circle>
            <path d="M24.8716687,77.040207 L64.5092205,8.38595339 C73.9345995,15.703704 80,27.1435269 80,40 C80,62.09139 62.09139,80 40,80 C34.6464695,80 29.5385792,78.9482891 24.8716687,77.040207 Z" id="Combined-Shape" fill="#E2B1ED"></path>
            <mask id="mask-2" fill="white">
                <use xlink:href="#path-1"></use>
            </mask>
            <use id="Combined-Shape" fill="#CD52EA" xlink:href="#path-1"></use>
        </g>
        <text id="URL" font-family="NittiGrotesk-Light, Nitti Grotesk" font-size="28" font-weight="300" letter-spacing="3.333333" fill="#CD52EA">
            <tspan x="269" y="165">URL</tspan>
        </text>
        <text id="Shortener" font-family="NittiGrotesk-Bold, Nitti Grotesk" font-size="52" font-weight="bold" fill="#CD52EA">
            <tspan x="269" y="207">Shortener</tspan>
        </text>
    </g>
</svg>
